!!!COM: Palestrina, Giovanni Perluigi da
!!!OPR: Benedicta es
!!!OTL: Kyrie II
**kern	**kern	**kern	**kern	**kern	**kern
*Ibass	*Ibass	*Itenor	*Icalto	*Icalto	*Icant
!Bassus 2	!Bassus 1	!Tenor	!Altus 2	!Altus 1	!Cantus
*clefF4	*clefF4	*clefGv2	*clefG2	*clefG2	*clefG2
*k[]	*k[]	*k[]	*k[]	*k[]	*k[]
*G:mix	*G:mix	*G:mix	*G:mix	*G:mix	*G:mix
*M4/2	*M4/2	*M4/2	*M4/2	*M4/2	*M4/2
=1	=1	=1	=1	=1	=1
0D	0r	0A	0r	2.d	0r
.	.	.	.	4e	.
.	.	.	.	4f#	.
.	.	.	.	4g	.
.	.	.	.	4a	.
.	.	.	.	4f#	.
=2	=2	=2	=2	=2	=2
1GG	0r	1B	0d	2g	0r
.	.	.	.	4G	.
.	.	.	.	4A	.
1GG	.	1G	.	4B	.
.	.	.	.	4c	.
.	.	.	.	4d	.
.	.	.	.	4B	.
=3	=3	=3	=3	=3	=3
2.C	0r	2.E	1e	2c	0r
.	.	.	.	1g	.
4D	.	4F	.	.	.
2E	.	2G	[1c	.	.
[2F	.	[2A	.	[2f	.
=4	=4	=4	=4	=4	=4
4F]	0r	4A]	1c]	2f]	0r
4E	.	4G	.	.	.
2C	.	1G	.	2e	.
1D	.	.	2.A	1d	.
.	.	2F	.	.	.
.	.	.	4B	.	.
=5	=5	=5	=5	=5	=5
2C	0r	1G	2c	2r	0r
2BB	.	.	1d	2g	.
1AA	.	1A	.	2f	.
.	.	.	2c#	2e	.
=6	=6	=6	=6	=6	=6
2.D	0D	2F	1d	2.f	0a
.	.	2D	.	.	.
4E	.	.	.	4e	.
4F	.	2A	2r	4d	.
4G	.	.	.	4c	.
4A	.	2D	2d	[2d	.
4F	.	.	.	.	.
=7	=7	=7	=7	=7	=7
0G	1GG	2.d	2B	4d]	1b
.	.	.	.	4c	.
.	.	.	4G	1B	.
.	.	4c	4A	.	.
.	1GG	1B	4B	.	1g
.	.	.	4c	.	.
.	.	.	4d	2G	.
.	.	.	4B	.	.
=8	=8	=8	=8	=8	=8
0r	2.C	1G	4c	1.g	2.e
.	.	.	4d	.	.
.	.	.	1e	.	.
.	4D	.	.	.	4f
.	2E	1r	.	.	2g
.	[2F	.	2d	[2f	[2a
=9	=9	=9	=9	=9	=9
0r	4F]	1r	2.c	2f]	4a]
.	4E	.	.	.	4g
.	2C	.	.	2e	1g
.	.	.	4B	.	.
.	1D	2r	1A	1d	.
.	.	2A	.	.	2f#
=10	=10	=10	=10	=10	=10
2r	1GG	2.B	[0G	1d	[0g
2D	.	.	.	.	.
.	.	4G	.	.	.
2.E	1r	2G	.	2B	.
.	.	[2c	.	[2e	.
4C	.	.	.	.	.
=11	=11	=11	=11	=11	=11
2C	0r	2c]	1G]	2e]	1g]
2G	.	2B	.	1d	.
2F	.	2A	1r	.	1r
2E	.	[2G	.	2c	.
=12	=12	=12	=12	=12	=12
1D	0r	2G]	1d	2B	0r
.	.	2F	.	2.A	.
1C	.	[1E	2.e	.	.
.	.	.	.	4G	.
.	.	.	.	[2G	.
.	.	.	4c	.	.
=13	=13	=13	=13	=13	=13
1AA	1r	2E]	1c	2G]	1a
.	.	4D	.	2F#	.
.	.	4C	.	.	.
1GG	2r	2D	2r	[1G	2.b
.	2D	2d	[2g	.	.
.	.	.	.	.	4g
=14	=14	=14	=14	=14	=14
0r	2.E	2B	4g]	0G]	2g
.	.	.	4f	.	.
.	.	2c	1e	.	1cc
.	4C	.	.	.	.
.	2C	2G	.	.	.
.	2G	2B	[2d	.	2b
=15	=15	=15	=15	=15	=15
0r	2.F	1c	4d]	1r	2a
.	.	.	4c	.	.
.	.	.	2c	.	1g
.	4E	.	.	.	.
.	1D	1d	2B	2r	.
.	.	.	[2A	2d	2f#
=16	=16	=16	=16	=16	=16
0r	1C	1G	4A]	2e	1g
.	.	.	4G	.	.
.	.	.	1G	4d	.
.	.	.	.	4c	.
.	1AA	2r	.	1c	1cc
.	.	2A	2F#	.	.
=17	=17	=17	=17	=17	=17
1r	1GG	2.B	1G	2r	1.b
.	.	.	.	1g	.
.	.	4G	.	.	.
2r	1r	2G	1r	.	.
2D	.	[2d	.	[2f	4a
.	.	.	.	.	4g
=18	=18	=18	=18	=18	=18
2F	1r	4d]	0r	2f]	2a
.	.	4c	.	.	.
2C	.	1c	.	2e	1g
2.G	1GG	.	.	1d	.
.	.	2B	.	.	2dd
4F	.	.	.	.	.
=19	=19	=19	=19	=19	=19
4E	2C	1G	2r	2e	2cc
4C	.	.	.	.	.
1G	2GG	.	2d	2d	2b
.	1D	1A	2d	2r	2a
2F#	.	.	2d	2d	2a
=20	=20	=20	=20	=20	=20
1G	2GG	1G	2.B	2d	2.b
.	2G	.	.	2d	.
.	.	.	4c	.	4g
1GG	2G	2r	1d	1B	2g
.	2G	2G	.	.	2dd
=21	=21	=21	=21	=21	=21
2C	4E	2G	2e	2G	2cc
.	4C	.	.	.	.
2GG	1G	2G	2d	4r	2b
.	.	.	.	4d	.
1D	.	1A	2r	2d	1a
.	2F#	.	2d	2d	.
=22	=22	=22	=22	=22	=22
0GG	1G	1G	2d	2.B	0b
.	.	.	2d	.	.
.	.	.	.	4c	.
.	1r	1r	2.B	4d	.
.	.	.	.	4G	.
.	.	.	.	[2g	.
.	.	.	4c	.	.
=23	=23	=23	=23	=23	=23
0r	0D	0A	1d	2g]	0r
.	.	.	.	4f#	.
.	.	.	.	4e	.
.	.	.	[1d	1f#	.
=24	=24	=24	=24	=24	=24
0GG	0G	2.B	1d]	1g	0b
.	.	4c	.	.	.
.	.	2d	[1g	[1G	.
.	.	2B	.	.	.
=25	=25	=25	=25	=25	=25
1C	1E	4e	2g]	1G]	0cc
.	.	4d	.	.	.
.	.	4c	2e	.	.
.	.	4B	.	.	.
1FF	[1F	4A	1a	1c	.
.	.	4G	.	.	.
.	.	2F	.	.	.
=26	=26	=26	=26	=26	=26
0C	2F]	1G	1g	2.c	0cc
.	4E	.	.	.	.
.	4D	.	.	4B	.
.	1E	2r	[1c	1G	.
.	.	[2c	.	.	.
=27	=27	=27	=27	=27	=27
1FF	1F	2c]	1c]	1A	0a
.	.	1A	.	.	.
1r	1D	.	1f	1d	.
.	.	[2d	.	.	.
=28	=28	=28	=28	=28	=28
0GG	0G	4d]	1d	2.B	0b
.	.	4c	.	.	.
.	.	4B	.	.	.
.	.	4A	.	4c	.
.	.	1B	1g	1d	.
=29	=29	=29	=29	=29	=29
2.C	1E	1c	2.g	2.e	1g
4D	.	.	4f	4d	.
1E	1C	1G	2e	2c	[1g
.	.	.	2c	2G	.
=30	=30	=30	=30	=30	=30
0D	1r	0A	1d	2r	2g]
.	.	.	.	2d	4f#
.	.	.	.	.	4e
.	1D	.	1r	2d	1f#
.	.	.	.	2d	.
=31	=31	=31	=31	=31	=31
[0C	2E	1c	1e	2G	[0g
.	2C	.	.	2.g	.
.	2.E	1G	2e	.	.
.	.	.	.	4f	.
.	.	.	2c	[2e	.
.	4F	.	.	.	.
=32	=32	=32	=32	=32	=32
0C]	1G	2.E	0e	4e]	1g_
.	.	.	.	4d	.
.	.	.	.	4c	.
.	.	4F	.	4B	.
.	1C	1G	.	1c	1g_
=33	=33	=33	=33	=33	=33
0GG	0D	0G	0d	0B	0g]
==	==	==	==	==	==
*-	*-	*-	*-	*-	*-
!!!CDT: 1525/^1526/-1594/2/2
!!!OCY: Italia
!!!AGN: Mass (Parody)
!!!AST: renaissance, vocal
!!!ASW: Motet 1520 (Josquin)
!!!PWK: Masses, Book 11
!!!RNB: Cadence finals: D
!!!YOR: Le Opere Complete, v. 28, p. 222
!!!YOO: Rome, Italy: Fratelli Scalera
!!!END: 1992//
!!!EED: John Miller
!!!YEC: Copyright 2000, John Miller
!!!YEN: United States of America
!!!YEM: Rights to all derivative electronic formats reserved.
!!!YEM: Refer to licensing agreement for further details.
!!!YEM: This file must be accompanied by the licensing agreement.
!!!YEM: A copy of the licensing agreement may be found at http://www.music-cog.ohio-state.edu/HumdrumDatabases/Palestrina/license.txt
!!!EMD: converted to Humdrum by Bret Aarden
